X: 35742
T: Salamanca Samba
R: reel
M: 4/4
K: Aminor
"Am"e2ce dcBd|cAA^G ABcA|"E" BE^GB EGBd|cAB^G ABcd|
"Am"e2ce dcBd|cAA^G ABcA|"E" BE^GB EGBd|cAB^G A4:|
"F"f4ddgf|"C"e4 ccfe|"E" dB^GB EGBd|cAB^G "Am"ABce|
"F"f4ddgf|"C"e4 ccfe|"E" dB^GB EGBd|cAB^G "Am"A4:|
"E7"EF^GA GFEF|^GAGF EFGA|"Am"BcBA ^GABc|dBcA B^GAF|
"E7"EF^GA GFEF|^GAGF EFGA|1 "Am"BcAB ^GAGF|"E"E2e2E2e2:|2 "Dm"DEF^G BAGF|"E"E8||

